_includes/icons/ios-raw.svg

<svg fill="#666" height="50" viewBox="0 0 50 50" width="50" xmlns="http://www.w3.org/2000/svg"><path d="m7 2v46h36v-32.589844l-13.816406-13.410156zm2 2h19v13h13v29h-32zm21 1.578125 9.707031 9.421875h-9.707031zm-13.878906 17.933594c-.75 0-1.53125.074219-2.144531.191406h-.003907v9.964844h1.964844v-4.039063h.289063c.660156 0 .972656.363282 1.152343 1.621094.152344 1.113281.378907 2.132813.496094 2.417969h2.058594c-.183594-.375-.453125-1.621094-.648438-2.746094-.195312-1.078125-.539062-1.726562-1.226562-1.996094v-.03125c1.03125-.476562 1.554687-1.453125 1.554687-2.535156 0-.867187-.179687-1.542969-.792968-2.097656-.660157-.601563-1.621094-.75-2.699219-.75zm6.34375.046875-2.1875 10.105469h1.902344l.449218-2.308594h1.816407l.433593 2.308594h1.90625l-1.964843-10.105469zm4.441406 0 1.722656 10.109375h1.949219l.675781-3.300781c.210938-.988282.375-2.113282.558594-3.332032h.027344c.136719 1.230469.285156 2.386719.449219 3.316407l.601562 3.316406h2.023438l1.785156-10.109375h-1.917969l-.496094 4.003906c-.136718 1.171875-.253906 2.25-.390625 3.570313h-.03125c-.117187-1.320313-.296875-2.445313-.476562-3.585938l-.675781-3.988281h-1.589844l-.71875 4.019531c-.210938 1.214844-.4375 2.308594-.574219 3.554688h-.042969c-.121093-1.230469-.210937-2.386719-.347656-3.539063l-.492187-4.035156zm-10.5 1.484375c.882813.027344 1.230469.644531 1.230469 1.5 0 .882812-.496094 1.570312-1.351563 1.570312h-.347656v-3.011718c.105469-.046875.300781-.058594.46875-.058594zm7.15625.375h.042969c.089844.671875.226562 1.679687.332031 2.292969l.328125 2.117187h-1.441406l.375-2.101562c.105469-.585938.257812-1.636719.363281-2.308594z"/></svg>

<svg xmlns="http://www.w3.org/2000/svg" viewBox="0 0 50 50" width="50" height="50" fill="#666"><path d="M 7 2 L 7 48 L 43 48 L 43 15.410156 L 29.183594 2 Z M 9 4 L 28 4 L 28 17 L 41 17 L 41 46 L 9 46 Z M 30 5.578125 L 39.707031 15 L 30 15 Z M 16.121094 23.511719 C 15.371094 23.511719 14.589844 23.585938 13.976563 23.703125 L 13.972656 23.703125 L 13.972656 33.667969 L 15.9375 33.667969 L 15.9375 29.628906 L 16.226563 29.628906 C 16.886719 29.628906 17.199219 29.992188 17.378906 31.25 C 17.53125 32.363281 17.757813 33.382813 17.875 33.667969 L 19.933594 33.667969 C 19.75 33.292969 19.480469 32.046875 19.285156 30.921875 C 19.089844 29.84375 18.746094 29.195313 18.058594 28.925781 L 18.058594 28.894531 C 19.089844 28.417969 19.613281 27.441406 19.613281 26.359375 C 19.613281 25.492188 19.433594 24.816406 18.820313 24.261719 C 18.160156 23.660156 17.199219 23.511719 16.121094 23.511719 Z M 22.464844 23.558594 L 20.277344 33.664063 L 22.179688 33.664063 L 22.628906 31.355469 L 24.445313 31.355469 L 24.878906 33.664063 L 26.785156 33.664063 L 24.820313 23.558594 Z M 26.90625 23.558594 L 28.628906 33.667969 L 30.578125 33.667969 L 31.253906 30.367188 C 31.464844 29.378906 31.628906 28.253906 31.8125 27.035156 L 31.839844 27.035156 C 31.976563 28.265625 32.125 29.421875 32.289063 30.351563 L 32.890625 33.667969 L 34.914063 33.667969 L 36.699219 23.558594 L 34.78125 23.558594 L 34.285156 27.5625 C 34.148438 28.734375 34.03125 29.8125 33.894531 31.132813 L 33.863281 31.132813 C 33.746094 29.8125 33.566406 28.6875 33.386719 27.546875 L 32.710938 23.558594 L 31.121094 23.558594 L 30.402344 27.578125 C 30.191406 28.792969 29.964844 29.886719 29.828125 31.132813 L 29.785156 31.132813 C 29.664063 29.902344 29.574219 28.746094 29.4375 27.59375 L 28.945313 23.558594 Z M 16.40625 25.042969 C 17.289063 25.070313 17.636719 25.6875 17.636719 26.542969 C 17.636719 27.425781 17.140625 28.113281 16.285156 28.113281 L 15.9375 28.113281 L 15.9375 25.101563 C 16.042969 25.054688 16.238281 25.042969 16.40625 25.042969 Z M 23.5625 25.417969 L 23.605469 25.417969 C 23.695313 26.089844 23.832031 27.097656 23.9375 27.710938 L 24.265625 29.828125 L 22.824219 29.828125 L 23.199219 27.726563 C 23.304688 27.140625 23.457031 26.089844 23.5625 25.417969 Z"/></svg>
